svg/shark.svg

<svg xmlns="http://www.w3.org/2000/svg" viewBox="0 0 24 24"><path d="M15.56 9.09C14.66 7.18 12.54 6 11 6c.47 1.4.28 2.57-.05 3.43C8.45 10 6 11 6 11S3 7 1 7l2 6-1 4c2 0 4-3 4-3s5 2 8 2v2c.65 0 1.91-.83 2.73-2.23 1.24-.21 2.27-.56 3.14-.96-.15-.18-.34-.37-.59-.51-.65-.39-1.46-.63-2.28-.8.82-.16 1.67-.28 2.59-.15.46.06.95.19 1.41.51.1.06.17.14.24.19C22.4 13.26 23 12.44 23 12c0-.87-3.81-2.5-7.44-2.91M18 12c-.55 0-1-.45-1-1 0-.24.1-.45.23-.62.61.12 1.2.29 1.74.46.03.05.03.1.03.16 0 .55-.45 1-1 1"/></svg>

<svg xmlns="http://www.w3.org/2000/svg" id="mdi-shark" viewBox="0 0 24 24"><path d="M15.56 9.09C14.66 7.18 12.54 6 11 6C11.47 7.4 11.28 8.57 10.95 9.43C8.45 10 6 11 6 11S3 7 1 7L3 13L2 17C4 17 6 14 6 14S11 16 14 16V18C14.65 18 15.91 17.17 16.73 15.77C17.97 15.56 19 15.21 19.87 14.81C19.72 14.63 19.53 14.44 19.28 14.3C18.63 13.91 17.82 13.67 17 13.5C17.82 13.34 18.67 13.22 19.59 13.35C20.05 13.41 20.54 13.54 21 13.86C21.1 13.92 21.17 14 21.24 14.05C22.4 13.26 23 12.44 23 12C23 11.13 19.19 9.5 15.56 9.09M18 12C17.45 12 17 11.55 17 11C17 10.76 17.1 10.55 17.23 10.38C17.84 10.5 18.43 10.67 18.97 10.84C19 10.89 19 10.94 19 11C19 11.55 18.55 12 18 12Z" /></svg>
